app/img/img.svg

<svg xmlns="http://www.w3.org/2000/svg" preserveAspectRatio="xMidYMid" width="450" height="254" viewBox="0 0 450 254"><defs><style>.cls-3{fill:#e74c3c}.cls-4{fill:#fff}</style></defs><g id="img"><path id="rect-1" class="cls-3" d="M0 0h450v254H0z"/><path d="M242.33 141.948h-33.663c-1.487 0-2.693-1.19-2.693-2.658v-21.267c0-1.467 1.206-2.658 2.693-2.658h8.164s-.083-.16-.083-1.994 1.507-3.322 3.367-3.322h10.772c1.86 0 3.366 1.488 3.366 3.323 0 1.836.085 1.995.085 1.995h7.994c1.488 0 2.694 1.19 2.694 2.658v21.267c0 1.468-1.206 2.658-2.693 2.658zm-16.77-5.352c4.462 0 8.08-3.57 8.08-7.975 0-4.404-3.618-7.974-8.08-7.974s-8.08 3.57-8.08 7.975c0 4.406 3.618 7.976 8.08 7.976z" id="path-1" class="cls-4" fill-rule="evenodd"/></g></svg>

<svg xmlns="http://www.w3.org/2000/svg" xmlns:xlink="http://www.w3.org/1999/xlink" preserveAspectRatio="xMidYMid" width="450" height="254" viewBox="0 0 450 254">
  <defs>
    <style>

      .cls-3 {
        fill: #e74c3c;
      }

      .cls-4 {
        fill: #ffffff;
      }
    </style>
  </defs>
  <g id="img">
    <rect id="rect-1" class="cls-3" width="450" height="254"/>
    <path d="M242.331,141.948 C242.331,141.948 208.667,141.948 208.667,141.948 C207.180,141.948 205.974,140.758 205.974,139.290 C205.974,139.290 205.974,118.023 205.974,118.023 C205.974,116.556 207.180,115.365 208.667,115.365 C208.667,115.365 216.831,115.365 216.831,115.365 C216.831,115.365 216.747,115.206 216.747,113.371 C216.747,111.536 218.254,110.048 220.114,110.048 C220.114,110.048 230.886,110.048 230.886,110.048 C232.745,110.048 234.252,111.536 234.252,113.371 C234.252,115.206 234.337,115.365 234.337,115.365 C234.337,115.365 242.331,115.365 242.331,115.365 C243.818,115.365 245.024,116.556 245.024,118.023 C245.024,118.023 245.024,139.290 245.024,139.290 C245.024,140.758 243.818,141.948 242.331,141.948 ZM225.560,136.596 C230.022,136.596 233.639,133.026 233.639,128.621 C233.639,124.216 230.022,120.646 225.560,120.646 C221.098,120.646 217.481,124.216 217.481,128.621 C217.481,133.026 221.098,136.596 225.560,136.596 Z" id="path-1" class="cls-4" fill-rule="evenodd"/>
  </g>
</svg>
